Otagle3/Assets/ikonySvG/TabelaInformacja.svg

<svg id="SVGRoot" width="208" height="208" version="1.1" viewBox="0 0 208 208" xmlns="http://www.w3.org/2000/svg">
 <g transform="translate(0,7)">
  <g transform="matrix(3.7795 0 0 3.7795 10.171 -6.7758)">
   <g transform="translate(-1.0884 -121.69)">
    <g transform="translate(1.6608 -59.209)">
     <g transform="translate(-.6443 -59.335)">
      <g transform="translate(-1396.8 269.89)">
       <g transform="translate(-57.972 -.024822)">
        <g transform="translate(1658.1 73.867)">
         <g transform="translate(-203.03 -103.33)">
          <flowRoot transform="matrix(.26458 0 0 .26458 -2.875 1.091)" fill="#000000" font-family="sans-serif" font-size="40px" letter-spacing="0px" word-spacing="0px" style="line-height:1.25" xml:space="preserve"><flowRegion><rect x="-85.582" y="-60.812" width="342.33" height="293.65"/></flowRegion><flowPara/></flowRoot>
          <g transform="translate(-1039.4 318.88)">
           <flowRoot transform="matrix(.26458 0 0 .26458 1036.5 -317.79)" fill="#000000" font-family="sans-serif" font-size="40px" letter-spacing="0px" word-spacing="0px" style="line-height:1.25" xml:space="preserve"><flowRegion><rect x="-105.21" y="-13.703" width="562.17" height="513.49"/></flowRegion><flowPara/></flowRoot>
           <g transform="translate(-66.134 .039287)">
            <g transform="translate(-66.173 .043409)">
             <flowRoot transform="matrix(.26458 0 0 .26458 1168.8 -317.87)" fill="#000000" font-family="sans-serif" font-size="40px" letter-spacing="0px" word-spacing="0px" style="line-height:1.25" xml:space="preserve"><flowRegion><rect x="-114.63" y="-91.434" width="675.23" height="522.91"/></flowRegion><flowPara/></flowRoot>
             <g transform="translate(-66.2 -.040316)">
              <g transform="translate(-65.918 -.60254)">
               <g transform="translate(-66.6 .14883)">
                <flowRoot fill="black" font-family="sans-serif" font-size="40px" letter-spacing="0px" word-spacing="0px" style="line-height:1.25" xml:space="preserve"><flowRegion><rect x="-24.34" y="-19.695" width="252.04" height="245.75"/></flowRegion><flowPara/></flowRoot>
                <g transform="translate(-68.678 -.48293)">
                 <flowRoot fill="black" font-family="sans-serif" font-size="40px" letter-spacing="0px" word-spacing="0px" style="line-height:1.25" xml:space="preserve"><flowRegion><rect x="-65.168" y="-26.762" width="382.37" height="335.26"/></flowRegion><flowPara/></flowRoot>
                 <g transform="translate(-63.347 .4912)">
                  <g transform="translate(529.82 -.18087)">
                   <g transform="translate(794.67 .06923)">
                    <g transform="translate(-198.36 .17569)">
                     <g transform="translate(-530.68 .043413)">
                      <g transform="translate(912.04 -.041317)">
                       <g transform="translate(132.58 -.39794)">
                        <g transform="translate(-580.62 .35866)">
                         <g transform="translate(-264.6 -.1571)">
                          <g transform="translate(463.55 .097138)">
                           <g transform="translate(-397.36 .059959)">
                            <g transform="translate(66.026 -.30592)">
                             <g transform="translate(-264.69 -.093008)">
                              <g transform="translate(734.89 179.33)">
                               <g transform="translate(-205.07 -178.97)">
                                <g transform="translate(-1081.1 -686.85)">
                                 <flowRoot fill="black" font-family="sans-serif" font-size="40px" letter-spacing="0px" word-spacing="0px" style="line-height:1.25" xml:space="preserve"><flowRegion><rect x="21" y="-71" width="223" height="308"/></flowRegion><flowPara/></flowRoot>
                                 <g transform="translate(-112.28 .55746)">
                                  <flowRoot transform="matrix(.26458 0 0 .26458 1500.7 367.6)" fill="#000000" font-family="sans-serif" font-size="40px" letter-spacing="0px" word-spacing="0px" style="line-height:1.25" xml:space="preserve"><flowRegion><rect x="-6.364" y="-2.0107" width="231.22" height="230.87"/></flowRegion><flowPara/></flowRoot>
                                  <g transform="translate(1386.8 133.57)">
                                   <g transform="translate(-1180.5 267.04)">
                                    <g transform="translate(753.05 -.28062)">
                                     <g transform="translate(747.14 .093556)">
                                      <g transform="translate(-805.88 1.4967)">
                                       <g transform="translate(-1037.4 -1.5903)">
                                        <rect x="1638.1" y="-31.75" width="52.951" height="52.917" fill="#db3b3b" stroke="#000" stroke-linecap="round" stroke-width=".50016" style="paint-order:fill markers stroke"/>
                                        <text transform="scale(1.0003 .99968)" x="1664.1523" y="9.1162434" fill="#ffffff" font-family="sans-serif" font-size="4.9389px" letter-spacing="0px" stroke-width=".26467" text-anchor="middle" word-spacing="0px" style="line-height:1.25" xml:space="preserve"><tspan x="1664.1523" y="9.1162434" text-align="center">Tabela</tspan><tspan x="1664.1523" y="17.056293" text-align="center">informacja</tspan></text>
                                        <g transform="translate(.20281)">
                                         <rect x="1644.5" y="-21.64" width="39.889" height="15.988" fill="none" stroke="#fff" stroke-linecap="round" style="paint-order:fill markers stroke"/>
                                         <path d="m1657.9-21.64v15.988" fill="none" stroke="#fff"/>
                                         <g transform="matrix(.012267 0 0 .012267 1645.9 -18.839)" clip-rule="evenodd" fill="#fff" fill-rule="evenodd" image-rendering="optimizeQuality" shape-rendering="geometricPrecision">
                                          <path class="fil0" d="m228.96 40.51h388.74c103.7 0 188.46 84.75 188.46 188.45v388.74c0 103.71-84.76 188.46-188.46 188.46h-388.74c-103.71 0-188.45-84.75-188.45-188.46v-388.74c0-103.7 84.74-188.45 188.45-188.45zm143.38 289.63h101.98v334.09h-101.98zm50.99-147.7c33.51 0 60.67 27.15 60.67 60.67 0 33.49-27.16 60.66-60.67 60.66-33.5 0-60.66-27.17-60.66-60.66 0-33.52 27.16-60.67 60.66-60.67zm194.37-84.72h-388.74c-72.13 0-131.25 59.11-131.25 131.24v388.74c0 72.13 59.12 131.25 131.25 131.25h388.74c72.13 0 131.24-59.12 131.24-131.25v-388.74c0-72.13-59.11-131.24-131.24-131.24z" fill="#fff"/>
                                         </g>
                                        </g>
                                       </g>
                                      </g>
                                     </g>
                                    </g>
                                   </g>
                                  </g>
                                 </g>
                                </g>
                               </g>
                              </g>
                             </g>
                            </g>
                           </g>
                          </g>
                         </g>
                        </g>
                       </g>
                      </g>
                     </g>
                    </g>
                   </g>
                  </g>
                 </g>
                </g>
               </g>
              </g>
             </g>
            </g>
           </g>
          </g>
         </g>
        </g>
       </g>
      </g>
     </g>
    </g>
   </g>
  </g>
 </g>
</svg>

<?xml version="1.0" encoding="UTF-8" standalone="no"?>
<svg
   xmlns:dc="http://purl.org/dc/elements/1.1/"
   xmlns:cc="http://creativecommons.org/ns#"
   xmlns:rdf="http://www.w3.org/1999/02/22-rdf-syntax-ns#"
   xmlns:svg="http://www.w3.org/2000/svg"
   xmlns="http://www.w3.org/2000/svg"
   id="SVGRoot"
   version="1.1"
   viewBox="0 0 200 200"
   height="200px"
   width="200px">
  <defs
     id="defs827" />
  <metadata
     id="metadata830">
    <rdf:RDF>
      <cc:Work
         rdf:about="">
        <dc:format>image/svg+xml</dc:format>
        <dc:type
           rdf:resource="http://purl.org/dc/dcmitype/StillImage" />
        <dc:title></dc:title>
      </cc:Work>
    </rdf:RDF>
  </metadata>
  <g
     id="layer1">
    <g
       id="g1433"
       transform="matrix(3.7795276,0,0,3.7795276,-6190.2147,120.5312)">
      <rect
         y="-31.749987"
         x="1638.1497"
         height="52.916668"
         width="52.950603"
         id="rect833-4-4-4-3-7-6-0-7-8-17"
         style="fill:#db3b3b;fill-opacity:1;stroke:#000000;stroke-width:0.50015801;stroke-linecap:round;stroke-miterlimit:4;stroke-dasharray:none;stroke-opacity:1;paint-order:fill markers stroke" />
      <text
         id="text983-1-5-6-98-2-6-5-2-3-2"
         y="11.097627"
         x="1664.1523"
         style="font-size:6.35203981px;line-height:1.25;font-family:voestalpine;-inkscape-font-specification:voestalpine;letter-spacing:0px;word-spacing:0px;fill:#ffffff;fill-opacity:1;stroke-width:0.26466799"
         xml:space="preserve"
         transform="scale(1.0003206,0.9996795)"><tspan
           style="font-size:6.35203981px;text-align:center;text-anchor:middle;fill:#ffffff;fill-opacity:1;stroke-width:0.26466799"
           y="11.097627"
           x="1664.1523"
           id="tspan2495-3-9-0">Tabela</tspan><tspan
           style="font-size:6.35203981px;text-align:center;text-anchor:middle;fill:#ffffff;fill-opacity:1;stroke-width:0.26466799"
           y="19.037676"
           x="1664.1523"
           id="tspan3064">informacja</tspan></text>
      <g
         id="g3151"
         transform="translate(0.20281191)">
        <rect
           y="-21.63999"
           x="1644.4778"
           height="15.987753"
           width="39.888638"
           id="rect3066"
           style="fill:none;fill-opacity:1;stroke:#ffffff;stroke-width:1;stroke-linecap:round;stroke-miterlimit:4;stroke-dasharray:none;stroke-opacity:1;paint-order:fill markers stroke" />
        <path
           id="path3068"
           d="M 1657.8816,-21.63999 V -5.652236"
           style="fill:none;stroke:#ffffff;stroke-width:1;stroke-linecap:butt;stroke-linejoin:miter;stroke-miterlimit:4;stroke-dasharray:none;stroke-opacity:1" />
        <g
           transform="matrix(0.01226726,0,0,0.01226726,1645.8741,-18.839274)"
           id="g3087"
           style="clip-rule:evenodd;fill:#ffffff;fill-opacity:1;fill-rule:evenodd;image-rendering:optimizeQuality;shape-rendering:geometricPrecision;text-rendering:geometricPrecision">
          <path
             style="fill:#ffffff;fill-opacity:1"
             id="path3074"
             d="M 228.96,40.51 H 617.7 c 103.7,0 188.46,84.75 188.46,188.45 V 617.7 c 0,103.71 -84.76,188.46 -188.46,188.46 H 228.96 C 125.25,806.16 40.51,721.41 40.51,617.7 V 228.96 c 0,-103.7 84.74,-188.45 188.45,-188.45 z M 372.34,330.14 H 474.32 V 664.23 H 372.34 Z m 50.99,-147.7 c 33.51,0 60.67,27.15 60.67,60.67 0,33.49 -27.16,60.66 -60.67,60.66 -33.5,0 -60.66,-27.17 -60.66,-60.66 0,-33.52 27.16,-60.67 60.66,-60.67 z M 617.7,97.72 H 228.96 c -72.13,0 -131.25,59.11 -131.25,131.24 V 617.7 c 0,72.13 59.12,131.25 131.25,131.25 H 617.7 c 72.13,0 131.24,-59.12 131.24,-131.25 V 228.96 C 748.94,156.83 689.83,97.72 617.7,97.72 Z"
             class="fil0" />
        </g>
      </g>
    </g>
  </g>
</svg>
